svg/color/four.svg

<?xml version="1.0" encoding="UTF-8" ?>
<!DOCTYPE svg PUBLIC "-//W3C//DTD SVG 1.1//EN" "http://www.w3.org/Graphics/SVG/1.1/DTD/svg11.dtd">
<svg width="250pt" height="250pt" viewBox="0 0 250 250" version="1.1" xmlns="http://www.w3.org/2000/svg">
<g id="#ffffffff">
<path fill="#ffffff" opacity="1.00" d=" M 0.00 0.00 L 250.00 0.00 L 250.00 250.00 L 0.00 250.00 L 0.00 0.00 M 25.75 63.05 C 32.10 67.14 38.86 70.53 45.24 74.57 C 72.10 59.45 98.82 44.02 125.34 28.31 C 125.21 20.80 125.36 13.28 125.25 5.77 C 91.91 24.55 58.95 44.02 25.75 63.05 M 130.46 5.87 C 130.37 13.44 130.40 21.01 130.44 28.59 C 156.89 44.03 183.43 59.33 210.01 74.55 C 216.62 70.79 223.31 67.17 229.71 63.06 C 196.64 43.97 163.71 24.62 130.46 5.87 M 23.77 68.90 C 23.66 106.87 23.76 144.84 23.72 182.80 C 25.17 182.42 26.59 181.89 27.86 181.08 C 33.09 177.94 38.42 174.97 43.67 171.86 C 43.70 141.06 43.73 110.26 43.66 79.47 C 40.01 77.37 36.37 75.27 32.73 73.17 C 29.84 71.55 27.13 69.44 23.77 68.90 M 210.88 79.71 C 210.93 107.80 210.90 135.88 210.89 163.96 C 210.96 166.58 210.60 169.27 211.25 171.84 C 217.54 175.79 224.08 179.36 230.53 183.06 C 230.68 144.77 230.66 106.47 230.54 68.18 C 224.04 72.12 217.35 75.74 210.88 79.71 M 173.26 84.01 C 173.17 111.79 173.15 139.57 173.27 167.36 C 179.76 163.57 186.32 159.86 192.73 155.93 C 192.68 135.69 192.75 115.45 192.69 95.21 C 186.22 91.46 179.74 87.74 173.26 84.01 M 145.45 99.84 C 145.35 117.15 145.27 134.47 145.48 151.78 C 149.79 149.16 154.18 146.67 158.54 144.13 C 158.60 131.86 158.78 119.57 158.47 107.31 C 154.35 104.48 149.86 102.18 145.45 99.84 M 127.72 112.55 C 127.64 121.33 127.66 130.10 127.71 138.88 C 130.38 137.35 133.05 135.82 135.72 134.30 C 135.45 128.60 137.01 122.78 135.58 117.19 C 133.16 115.32 130.35 114.08 127.72 112.55 M 43.82 177.75 C 37.78 181.17 31.80 184.72 25.75 188.11 C 58.74 207.59 92.01 226.61 125.24 245.68 C 125.34 238.09 125.27 230.50 125.28 222.92 C 100.19 208.20 74.95 193.73 49.75 179.19 C 47.93 178.31 45.87 176.21 43.82 177.75 M 130.66 222.78 C 130.06 230.26 130.54 237.81 130.47 245.32 C 141.76 239.56 152.49 232.72 163.59 226.59 C 185.39 213.99 207.23 201.42 228.96 188.70 C 228.86 188.40 228.68 187.80 228.58 187.51 C 222.49 183.84 216.29 180.30 210.03 176.91 C 183.45 191.97 156.95 207.23 130.66 222.78 Z" />
</g>
<g id="#b3b3b3ff">
<path fill="#b3b3b3" opacity="1.00" d=" M 25.75 63.05 C 58.95 44.02 91.91 24.55 125.25 5.77 C 125.36 13.28 125.21 20.80 125.34 28.31 C 98.82 44.02 72.10 59.45 45.24 74.57 C 38.86 70.53 32.10 67.14 25.75 63.05 Z" />
<path fill="#b3b3b3" opacity="1.00" d=" M 43.82 177.75 C 45.87 176.21 47.93 178.31 49.75 179.19 C 74.95 193.73 100.19 208.20 125.28 222.92 C 125.27 230.50 125.34 238.09 125.24 245.68 C 92.01 226.61 58.74 207.59 25.75 188.11 C 31.80 184.72 37.78 181.17 43.82 177.75 Z" />
</g>
<g id="#ccccccff">
<path fill="#cccccc" opacity="1.00" d=" M 130.46 5.87 C 163.71 24.62 196.64 43.97 229.71 63.06 C 223.31 67.17 216.62 70.79 210.01 74.55 C 183.43 59.33 156.89 44.03 130.44 28.59 C 130.40 21.01 130.37 13.44 130.46 5.87 Z" />
<path fill="#cccccc" opacity="1.00" d=" M 130.66 222.78 C 156.95 207.23 183.45 191.97 210.03 176.91 C 216.29 180.30 222.49 183.84 228.58 187.51 C 228.68 187.80 228.86 188.40 228.96 188.70 C 207.23 201.42 185.39 213.99 163.59 226.59 C 152.49 232.72 141.76 239.56 130.47 245.32 C 130.54 237.81 130.06 230.26 130.66 222.78 Z" />
</g>
<g id="#999999ff">
<path fill="#999999" opacity="1.00" d=" M 23.77 68.90 C 27.13 69.44 29.84 71.55 32.73 73.17 C 36.37 75.27 40.01 77.37 43.66 79.47 C 43.73 110.26 43.70 141.06 43.67 171.86 C 38.42 174.97 33.09 177.94 27.86 181.08 C 26.59 181.89 25.17 182.42 23.72 182.80 C 23.76 144.84 23.66 106.87 23.77 68.90 Z" />
</g>
<g id="#76beddff">
<path fill="#76bedd" opacity="1.00" d=" M 210.88 79.71 C 217.35 75.74 224.04 72.12 230.54 68.18 C 230.66 106.47 230.68 144.77 230.53 183.06 C 224.08 179.36 217.54 175.79 211.25 171.84 C 210.60 169.27 210.96 166.58 210.89 163.96 C 210.90 135.88 210.93 107.80 210.88 79.71 Z" />
<path fill="#76bedd" opacity="1.00" d=" M 173.26 84.01 C 179.74 87.74 186.22 91.46 192.69 95.21 C 192.75 115.45 192.68 135.69 192.73 155.93 C 186.32 159.86 179.76 163.57 173.27 167.36 C 173.15 139.57 173.17 111.79 173.26 84.01 Z" />
<path fill="#76bedd" opacity="1.00" d=" M 145.45 99.84 C 149.86 102.18 154.35 104.48 158.47 107.31 C 158.78 119.57 158.60 131.86 158.54 144.13 C 154.18 146.67 149.79 149.16 145.48 151.78 C 145.27 134.47 145.35 117.15 145.45 99.84 Z" />
<path fill="#76bedd" opacity="1.00" d=" M 127.72 112.55 C 130.35 114.08 133.16 115.32 135.58 117.19 C 137.01 122.78 135.45 128.60 135.72 134.30 C 133.05 135.82 130.38 137.35 127.71 138.88 C 127.66 130.10 127.64 121.33 127.72 112.55 Z" />
</g>
</svg>

<?xml version="1.0" encoding="utf-8"?>
<!-- Generator: Adobe Illustrator 26.0.3, SVG Export Plug-In . SVG Version: 6.00 Build 0)  -->
<svg version="1.1" id="Layer_1" xmlns="http://www.w3.org/2000/svg" xmlns:xlink="http://www.w3.org/1999/xlink" x="0px" y="0px"
	 viewBox="0 0 250 250" style="enable-background:new 0 0 250 250;" xml:space="preserve">
<style type="text/css">
	.st0{fill:#B3B3B3;}
	.st1{fill:#CCCCCC;}
	.st2{fill:#999999;}
	.st3{fill:#76BEDD;}
</style>
<g id="_x23_b3b3b3ff">
	<path class="st0" d="M25.8,63C59,44,91.9,24.5,125.2,5.8c0.1,7.5,0,15,0.1,22.5C98.8,44,72.1,59.5,45.2,74.6
		C38.9,70.5,32.1,67.1,25.8,63z"/>
	<path class="st0" d="M43.8,177.8c2-1.5,4.1,0.6,5.9,1.4c25.2,14.5,50.4,29,75.5,43.7c0,7.6,0.1,15.2,0,22.8
		c-33.2-19.1-66.5-38.1-99.5-57.6C31.8,184.7,37.8,181.2,43.8,177.8z"/>
</g>
<g id="_x23_ccccccff">
	<path class="st1" d="M130.5,5.9c33.2,18.8,66.2,38.1,99.2,57.2c-6.4,4.1-13.1,7.7-19.7,11.5c-26.6-15.2-53.1-30.5-79.6-46
		C130.4,21,130.4,13.4,130.5,5.9z"/>
	<path class="st1" d="M130.7,222.8c26.3-15.6,52.8-30.8,79.4-45.9c6.3,3.4,12.5,6.9,18.6,10.6c0.1,0.3,0.3,0.9,0.4,1.2
		c-21.7,12.7-43.6,25.3-65.4,37.9c-11.1,6.1-21.8,13-33.1,18.7C130.5,237.8,130.1,230.3,130.7,222.8z"/>
</g>
<g id="_x23_999999ff">
	<path class="st2" d="M23.8,68.9c3.4,0.5,6.1,2.7,9,4.3c3.6,2.1,7.3,4.2,10.9,6.3c0.1,30.8,0,61.6,0,92.4
		c-5.2,3.1-10.6,6.1-15.8,9.2c-1.3,0.8-2.7,1.3-4.1,1.7C23.8,144.8,23.7,106.9,23.8,68.9z"/>
</g>
<g id="_x23_76beddff">
	<path class="st3" d="M210.9,79.7c6.5-4,13.2-7.6,19.7-11.5c0.1,38.3,0.1,76.6,0,114.9c-6.4-3.7-13-7.3-19.3-11.2
		c-0.6-2.6-0.3-5.3-0.4-7.9C210.9,135.9,210.9,107.8,210.9,79.7z"/>
	<path class="st3" d="M173.3,84c6.5,3.7,13,7.4,19.4,11.2c0.1,20.2,0,40.5,0,60.7c-6.4,3.9-13,7.6-19.5,11.4
		C173.1,139.6,173.2,111.8,173.3,84z"/>
	<path class="st3" d="M145.4,99.8c4.4,2.3,8.9,4.6,13,7.5c0.3,12.3,0.1,24.6,0.1,36.8c-4.4,2.5-8.8,5-13.1,7.6
		C145.3,134.5,145.4,117.2,145.4,99.8z"/>
	<path class="st3" d="M127.7,112.6c2.6,1.5,5.4,2.8,7.9,4.6c1.4,5.6-0.1,11.4,0.1,17.1c-2.7,1.5-5.3,3.1-8,4.6
		C127.7,130.1,127.6,121.3,127.7,112.6z"/>
</g>
</svg>
